public/logos/DB.svg

<svg viewBox="0 0 100 70" xmlns="http://www.w3.org/2000/svg"><path d="m90 0h-80c-5.5 0-10 4.5-10 10v50c0 5.5 4.5 10 10 10h80c5.5 0 10-4.5 10-10.1v-49.9c0-5.5-4.5-10-10-10z" fill="#f01414"/><path d="m92.7 59.9c.1 1.5-1.1 2.8-2.7 2.9h-80c-1.5 0-2.7-1.3-2.7-2.8v-50c-.1-1.5 1.1-2.8 2.6-2.9h80.1c1.5 0 2.7 1.3 2.7 2.8z" fill="#fff"/><path d="m30.6 57.9h-16.8v-45.8h16.8c11.9 0 18.4 7.4 18.4 22.7 0 13.2-4.5 23-18.4 23.1zm7.3-22.2c0-9.2-1-16.4-10.9-16.4h-2.2v31.2h3.9c5.8 0 9.2-4.7 9.2-14.8zm40.1-1.8c4.7-1.4 7.9-5.7 8-10.7 0-1-.2-11.2-13.1-11.2h-19.1v45.8h16.2c4.3 0 17.7 0 17.7-12.9 0-3.1-1.4-9.2-9.7-11zm-13.3-14.7h3.5c4.9 0 6.9 1.7 6.9 5.5 0 3-2.2 5.5-6 5.5h-4.3v-11zm4.5 31.3h-4.5v-11.8h4.8c5.7 0 7.1 3.3 7.1 5.9 0 5.9-5.6 5.9-7.4 5.9z" fill="#f01414"/></svg>

<svg id="Ebene_1" xmlns="http://www.w3.org/2000/svg" viewBox="0 0 100 70"><style>.st0{fill:#f01414}.st1{fill:#fff}</style><title>db_em_rgb_100px</title><path class="st0" d="M90 0H10C4.5 0 0 4.5 0 10v50c0 5.5 4.5 10 10 10h80c5.5 0 10-4.5 10-10.1V10c0-5.5-4.5-10-10-10z"/><path class="st1" d="M92.7 59.9c.1 1.5-1.1 2.8-2.7 2.9H10c-1.5 0-2.7-1.3-2.7-2.8V10c-.1-1.5 1.1-2.8 2.6-2.9H90c1.5 0 2.7 1.3 2.7 2.8v50z"/><path class="st0" d="M30.6 57.9H13.8V12.1h16.8c11.9 0 18.4 7.4 18.4 22.7 0 13.2-4.5 23-18.4 23.1zm7.3-22.2c0-9.2-1-16.4-10.9-16.4h-2.2v31.2h3.9c5.8 0 9.2-4.7 9.2-14.8zM78 33.9c4.7-1.4 7.9-5.7 8-10.7 0-1-.2-11.2-13.1-11.2H53.8v45.8H70c4.3 0 17.7 0 17.7-12.9 0-3.1-1.4-9.2-9.7-11zM64.7 19.2h3.5c4.9 0 6.9 1.7 6.9 5.5 0 3-2.2 5.5-6 5.5h-4.3v-11zm4.5 31.3h-4.5V38.7h4.8c5.7 0 7.1 3.3 7.1 5.9 0 5.9-5.6 5.9-7.4 5.9z"/></svg>
